src/assets/images/bene2.svg

<svg width="40" height="40" viewBox="0 0 40 40" fill="none" xmlns="http://www.w3.org/2000/svg">
<circle cx="19.563" cy="20.0366" r="19.563" fill="url(#paint0_linear_582_71)"/>
<path d="M29.6968 13.8066H12.6733C12.4168 13.8068 12.1709 13.9015 11.9897 14.0699C11.8084 14.2383 11.7066 14.4666 11.7067 14.7047V19.2024C9.94209 19.4753 8.5918 20.8988 8.5918 22.614C8.59286 23.5323 8.98633 24.4128 9.68588 25.0621C10.3854 25.7115 11.3339 26.0768 12.3233 26.0779C14.1126 26.0779 15.611 24.9011 15.9719 23.339H29.6968C29.8238 23.339 29.9496 23.3157 30.0669 23.2706C30.1842 23.2255 30.2908 23.1594 30.3806 23.076C30.4704 22.9926 30.5416 22.8937 30.5902 22.7847C30.6388 22.6758 30.6638 22.5591 30.6637 22.4412V21.2573H32.1674C32.2944 21.2574 32.4202 21.2342 32.5375 21.1891C32.6548 21.1439 32.7615 21.0778 32.8513 20.9944C32.9411 20.9111 33.0123 20.8121 33.0608 20.7031C33.1094 20.5942 33.1343 20.4775 33.1343 20.3596V16.786C33.1343 16.6682 33.1093 16.5515 33.0607 16.4426C33.0122 16.3337 32.9409 16.2347 32.8512 16.1514C32.7614 16.068 32.6548 16.0019 32.5374 15.9568C32.4201 15.9117 32.2944 15.8885 32.1674 15.8886H30.6637V14.7047C30.6638 14.5868 30.6388 14.47 30.5902 14.3611C30.5416 14.2522 30.4704 14.1532 30.3806 14.0698C30.2909 13.9864 30.1843 13.9202 30.0669 13.8751C29.9496 13.8299 29.8238 13.8067 29.6968 13.8066ZM12.3641 25.321C11.7871 25.3211 11.2231 25.1624 10.7433 24.865C10.2635 24.5675 9.8895 24.1447 9.66863 23.6499C9.44776 23.1552 9.38992 22.6107 9.50243 22.0854C9.61494 21.5602 9.89275 21.0777 10.3007 20.6989C10.7087 20.3202 11.2285 20.0623 11.7943 19.9578C12.3602 19.8534 12.9468 19.907 13.4798 20.1119C14.0129 20.3169 14.4685 20.664 14.789 21.1093C15.1095 21.5546 15.2806 22.0782 15.2805 22.6137C15.2805 23.3317 14.9732 24.0203 14.4263 24.528C13.8794 25.0357 13.1376 25.321 12.3641 25.321ZM28.8215 21.8365H15.9586C15.8207 21.2861 15.5403 20.7753 15.1415 20.3483C14.7428 19.9213 14.2378 19.5911 13.6705 19.3863V15.463H28.8215V21.8365Z" fill="white"/>
<path d="M9.44727 22.6083C9.44733 23.1438 9.61844 23.6672 9.93898 24.1124C10.2595 24.5576 10.7151 24.9046 11.2481 25.1095C11.7811 25.3144 12.3675 25.3681 12.9333 25.2636C13.4992 25.1591 14.0189 24.9013 14.4268 24.5227C14.8348 24.1441 15.1126 23.6617 15.2252 23.1365C15.3378 22.6113 15.2801 22.0669 15.0594 21.5722C14.8387 21.0774 14.4649 20.6545 13.9853 20.357C13.5057 20.0594 12.9418 19.9005 12.3649 19.9004C11.9818 19.9003 11.6023 19.9702 11.2483 20.1063C10.8943 20.2423 10.5726 20.4418 10.3017 20.6932C10.0307 20.9447 9.8158 21.2433 9.6692 21.5719C9.5226 21.9005 9.44718 22.2526 9.44727 22.6083ZM12.3677 21.489L13.4756 20.2853L13.4694 20.2973L13.4808 20.2853L12.4886 22.2487C12.485 22.2557 12.4834 22.2636 12.484 22.2714C12.4846 22.2792 12.4873 22.2867 12.4919 22.2933C12.4966 22.2998 12.5029 22.3051 12.5104 22.3087C12.5179 22.3123 12.5262 22.3141 12.5347 22.3138L13.9725 22.2679H13.978L11.1241 24.9178C11.1157 24.926 11.1044 24.931 11.0923 24.9319C11.0803 24.9328 11.0682 24.9296 11.0586 24.9228C11.0489 24.9161 11.0422 24.9062 11.0398 24.8952C11.0374 24.8842 11.0394 24.8727 11.0455 24.863L12.2465 22.8924C12.2508 22.8854 12.253 22.8774 12.2529 22.8692C12.2528 22.8611 12.2504 22.8531 12.2459 22.8462C12.2414 22.8392 12.235 22.8334 12.2274 22.8295C12.2197 22.8256 12.211 22.8236 12.2023 22.8238L11.2314 22.8465C11.2218 22.8467 11.2123 22.8444 11.2041 22.8397C11.1959 22.8351 11.1894 22.8283 11.1852 22.8203C11.181 22.8122 11.1795 22.8033 11.1807 22.7944C11.1819 22.7856 11.1859 22.7773 11.1921 22.7705L12.3671 21.4941L12.3677 21.489Z" fill="white"/>
<path d="M28.8199 15.458H26.5488V21.8316H28.8199V15.458Z" fill="#F25E53"/>
<path d="M11.1263 24.917L12.5525 23.5921L13.9787 22.2671H13.9731L12.5353 22.313C12.5269 22.3133 12.5185 22.3115 12.5111 22.3079C12.5036 22.3043 12.4972 22.299 12.4926 22.2925C12.4879 22.2859 12.4852 22.2784 12.4846 22.2706C12.484 22.2628 12.4856 22.2549 12.4892 22.2479L13.483 20.2842L13.4716 20.2962L13.4778 20.2842L12.3699 21.4879V21.4922L11.1949 22.7685C11.1887 22.7753 11.1848 22.7836 11.1835 22.7925C11.1823 22.8013 11.1839 22.8103 11.188 22.8183C11.1922 22.8264 11.1987 22.8331 11.2069 22.8378C11.2151 22.8424 11.2246 22.8448 11.2342 22.8446L12.2051 22.8219C12.2138 22.8217 12.2225 22.8237 12.2302 22.8276C12.2378 22.8315 12.2443 22.8372 12.2487 22.8442C12.2532 22.8512 12.2557 22.8591 12.2558 22.8673C12.2559 22.8754 12.2536 22.8834 12.2493 22.8905L11.0477 24.8622C11.0416 24.8719 11.0396 24.8834 11.042 24.8944C11.0444 24.9054 11.0511 24.9153 11.0608 24.922C11.0704 24.9288 11.0825 24.932 11.0945 24.9311C11.1066 24.9302 11.1179 24.9252 11.1263 24.917Z" fill="#F4815A"/>
<defs>
<linearGradient id="paint0_linear_582_71" x1="19.563" y1="0.473633" x2="19.563" y2="39.5997" gradientUnits="userSpaceOnUse">
<stop stop-color="#F4815A"/>
<stop offset="1" stop-color="#F25E53"/>
</linearGradient>
</defs>
</svg>

<svg xmlns="http://www.w3.org/2000/svg" width="40" height="40" fill="none"><circle cx="19.563" cy="20.037" r="19.563" fill="url(#a)"/><path fill="#fff" d="M29.697 13.807H12.673c-.256 0-.502.095-.683.263a.87.87 0 0 0-.283.635v4.497c-1.765.273-3.115 1.697-3.115 3.412a3.35 3.35 0 0 0 1.094 2.448c.7.65 1.648 1.015 2.637 1.016 1.79 0 3.288-1.177 3.649-2.739h13.725c.127 0 .253-.023.37-.068a1 1 0 0 0 .314-.195.9.9 0 0 0 .21-.291.8.8 0 0 0 .073-.344v-1.184h1.503q.193 0 .37-.068a1 1 0 0 0 .314-.195.9.9 0 0 0 .21-.29.8.8 0 0 0 .073-.344v-3.574a.8.8 0 0 0-.073-.343.9.9 0 0 0-.21-.292 1 1 0 0 0-.314-.194 1 1 0 0 0-.37-.068h-1.503v-1.184a.8.8 0 0 0-.074-.344.9.9 0 0 0-.21-.291 1 1 0 0 0-.313-.195 1 1 0 0 0-.37-.068M12.364 25.32a3.1 3.1 0 0 1-1.62-.456 2.76 2.76 0 0 1-1.075-1.215 2.53 2.53 0 0 1-.167-1.565c.113-.525.39-1.007.799-1.386a3 3 0 0 1 1.493-.741 3.13 3.13 0 0 1 1.686.154 2.9 2.9 0 0 1 1.309.997c.32.446.492.97.492 1.505 0 .718-.308 1.406-.855 1.914a3.04 3.04 0 0 1-2.062.793m16.458-3.485H15.959a3.4 3.4 0 0 0-.817-1.488 3.75 3.75 0 0 0-1.471-.962v-3.923h15.15z"/><path fill="#fff" d="M9.447 22.608c0 .536.171 1.06.492 1.504.32.446.776.793 1.31.998a3.14 3.14 0 0 0 1.684.154 3 3 0 0 0 1.494-.741 2.65 2.65 0 0 0 .798-1.386 2.53 2.53 0 0 0-.166-1.565 2.76 2.76 0 0 0-1.074-1.215 3.11 3.11 0 0 0-2.737-.25 2.9 2.9 0 0 0-.946.586c-.271.252-.486.55-.633.879a2.5 2.5 0 0 0-.222 1.036m2.92-1.119 1.109-1.204-.007.012.012-.012-.992 1.964a.04.04 0 0 0 .003.044l.018.016.025.005 1.438-.046h.005l-2.854 2.65a.05.05 0 0 1-.066.005.05.05 0 0 1-.018-.028.04.04 0 0 1 .006-.032l1.2-1.97a.04.04 0 0 0 0-.047l-.019-.017-.025-.005-.97.022a.1.1 0 0 1-.028-.006.1.1 0 0 1-.019-.02.04.04 0 0 1 .007-.05l1.175-1.276z"/><path fill="#F25E53" d="M28.82 15.458h-2.271v6.374h2.27z"/><path fill="#F4815A" d="m11.126 24.917 1.427-1.325 1.426-1.325h-.006l-1.438.046a.05.05 0 0 1-.042-.02.04.04 0 0 1-.004-.045l.994-1.964-.011.012.006-.012-1.108 1.204v.004l-1.175 1.276a.044.044 0 0 0-.007.05q.006.012.019.02l.027.007.971-.023q.014 0 .025.006t.019.016a.04.04 0 0 1 .007.023.04.04 0 0 1-.007.023l-1.201 1.972a.04.04 0 0 0-.006.032q.004.017.019.028a.05.05 0 0 0 .065-.005"/><defs><linearGradient id="a" x1="19.563" x2="19.563" y1=".474" y2="39.6" gradientUnits="userSpaceOnUse"><stop stop-color="#F4815A"/><stop offset="1" stop-color="#F25E53"/></linearGradient></defs></svg>
